X:1
T:Title
%%score { ( 1 4 ) | ( 2 3 ) }
L:1/8
M:4/4
K:D
V:1 treble nm="Grand Piano"
V:4 treble 
V:2 bass 
V:3 bass 
V:1
 z4 z2[Q:1/4=100] D2 | F2 F2 G>F G>B | A6 F2 | [FA]2 [Fd]2 [Ec]2 [DB]2 |[M:3/4] [CA]6 | %5
[M:1/4] [EG]2 |[M:4/4] F2 F2 G>F G>[GB] | [FA]6 [F,D]2 | [A,DF]2 [B,DG]2[K:bass] [G,CE]3 [F,D] | %9
[M:3/4] [F,D]6 |[M:1/4] z2 |[M:4/4] z2[K:treble] E>E EA B>c | d6 z2 | [Ge]2 [Gd]2 [DAc]2 [DGB]2 | %14
 [DFA]6 [A,EG]2 | [A,DF]2 [A,DF]2 [B,DG]>[A,DF] [B,DG]>[DGB] | [DFA]6 [F,D]2 | %17
 [A,DF]2 [B,DG]2[K:bass] [G,CE]3 [F,D] |[M:3/4] [F,D]6 |] %19
V:2
 z4 z2 [D,F,]2 | [D,A,D]2 [D,A,D]2 [D,B,D]>[D,A,D] [D,B,D]>[D,G,D] | [D,F,D]6 [D,A,D]2 | %3
 [D,D]2 [D,A,]2 [E,A,]2 [E,^G,]2 |[M:3/4] [A,,A,]6 |[M:1/4] [A,,A,]2 | %6
[M:4/4] [D,A,D]2 [D,A,D]2 [D,B,D]>[D,A,D] [D,B,D]>[D,D] | [D,D]6 D,2 | D,2 G,,2 A,,3 D, | %9
[M:3/4] D,6 |[M:1/4][K:treble] A>d |[M:4/4] c6 z2 | %12
 z[K:bass] [D,A,] [D,A,]>[D,A,] [D,A,]2 [E,A,][F,D] | [G,B,]2 [G,B,]2 G,,2 B,,2 | D,6 C,2 | %15
 D,2 D,2 D,>D, D,>D, | D,6 D,2 | D,2 G,,2 A,,3 D, |[M:3/4] D,6 |] %19
V:3
 x8 | x8 | x8 | x8 |[M:3/4] x6 |[M:1/4] x2 |[M:4/4] x8 | x8 | x8 |[M:3/4] x6 | %10
[M:1/4][K:treble] x2 |[M:4/4] z2 A,>A, .A,2 z2 | x[K:bass] x7 | x8 | x8 | x8 | x8 | x8 | %18
[M:3/4] x6 |] %19
V:4
 x8 | x8 | x8 | x8 |[M:3/4] x6 |[M:1/4] x2 |[M:4/4] x8 | x8 | x4[K:bass] x4 |[M:3/4] x6 | %10
[M:1/4] x2 |[M:4/4] x2[K:treble] x6 | z F F>F F2 [Ac][Ad] | x8 | x8 | x8 | x8 | x4[K:bass] x4 | %18
[M:3/4] x6 |] %19

